.local/share/icons/Gruvbox-Plus-Dark/panel/16/org.sparkleshare.SparkleShare-syncing-error.svg

<svg xmlns="http://www.w3.org/2000/svg" width="16" height="16" version="1.1">
    <defs>
        <style id="current-color-scheme" type="text/css">
            .ColorScheme-Text {
                color: #ebdbb2;
            }

            .ColorScheme-Highlight {
                color: #fb4934;
            }
        </style>
    </defs>
    <path style="fill:currentColor" class="ColorScheme-Highlight"
        d="M 1 1 C 1 1 0 1.0136719 0 2.0136719 L 0 13 C 0 13 4e-08 14 1 14 L 8.7441406 14 A 4.5 4.5 0 0 1 8.0136719 11.853516 L 7 11.193359 L 5.4863281 12.181641 C 4.860643 12.591398 4.0346646 12.03008 4.2558594 11.345703 L 4.7910156 9.609375 L 3.3203125 8.3671875 C 2.7109354 7.9358223 3.0272897 7.0268886 3.7910156 7.0136719 L 5.6347656 6.9785156 L 6.2402344 5.3066406 C 6.3559467 4.994082 6.6763035 4.7889373 7.0292969 4.8007812 C 7.3604918 4.8125813 7.6512167 5.0133508 7.7597656 5.3066406 L 8.3652344 6.9785156 L 10.210938 7.0136719 C 10.497047 7.0191315 10.720511 7.1514638 10.855469 7.3359375 A 4.5 4.5 0 0 1 12.5 7.0253906 A 4.5 4.5 0 0 1 14 7.2890625 L 14 4.0507812 C 14 3.0507811 13 3 13 3 L 8 3 L 6 1 L 1 1 z M 6.9902344 5.5839844 L 6.3847656 7.2558594 C 6.2705462 7.5640382 5.978991 7.770865 5.6503906 7.7773438 L 3.9179688 7.8105469 L 5.2539062 8.9589844 C 5.5387423 9.1610529 5.6600604 9.5250898 5.5527344 9.8574219 L 5.0429688 11.511719 C 5.0466488 11.509819 5.0437074 11.515019 5.0488281 11.511719 L 6.5644531 10.523438 C 6.8297735 10.350594 7.1721795 10.350594 7.4375 10.523438 L 8.046875 10.921875 A 4.5 4.5 0 0 1 8.4140625 9.6503906 C 8.4012993 9.3825296 8.5198125 9.1195088 8.7460938 8.9589844 L 8.9160156 8.8125 A 4.5 4.5 0 0 1 9.9707031 7.8085938 L 8.3515625 7.7773438 C 8.0223873 7.7714742 7.7296605 7.5645618 7.6152344 7.2558594 L 7.0117188 5.5839844 L 7.0097656 5.5839844 C 7.0196956 5.6109784 7.0205971 5.6018494 7.0019531 5.5996094 C 6.9835131 5.6014094 6.9801684 5.6111784 6.9902344 5.5839844 z" />
    <path style="fill:currentColor" class="ColorScheme-Highlight"
        d="M 12.5 8 C 10.567037 8 9 9.567036 9 11.5 C 9 13.432962 10.567037 15 12.5 15 C 14.432963 15 16 13.432962 16 11.5 C 16 9.567036 14.432963 8 12.5 8 z M 12 9 L 13 9 L 13 12 L 12 12 L 12 9 z M 12.5 13 A 0.5 0.5 0 0 1 13 13.5 A 0.5 0.5 0 0 1 12.5 14 A 0.5 0.5 0 0 1 12 13.5 A 0.5 0.5 0 0 1 12.5 13 z" />
</svg>

<svg width="16" height="16" version="1.1" xmlns="http://www.w3.org/2000/svg">
  <defs>
    <style id="current-color-scheme" type="text/css">.ColorScheme-Text { color:#ebdbb2; } .ColorScheme-Highlight { color:#458588; } .ColorScheme-NeutralText { color:#fe8019; } .ColorScheme-PositiveText { color:#689d6a; } .ColorScheme-NegativeText { color:#fb4934; }</style>
  </defs>
  <path class="ColorScheme-Text" d="m1 1s-1 0.01367-1 1.014v10.99s4e-8 1 1 1h7.744a4.5 4.5 0 0 1-0.7305-2.146l-1.014-0.6602-1.514 0.9883c-0.6257 0.4098-1.452-0.1516-1.23-0.8359l0.5352-1.736-1.471-1.242c-0.6094-0.4314-0.293-1.34 0.4707-1.354l1.844-0.03516 0.6055-1.672c0.1157-0.3126 0.4361-0.5177 0.7891-0.5059 0.3312 0.0118 0.6219 0.2126 0.7305 0.5059l0.6055 1.672 1.846 0.03516c0.2861 0.00546 0.5096 0.1378 0.6445 0.3223a4.5 4.5 0 0 1 1.645-0.3105 4.5 4.5 0 0 1 1.5 0.2637v-3.238c0-1-1-1.051-1-1.051h-5l-2-2h-5zm5.99 4.584-0.6055 1.672c-0.1142 0.3082-0.4058 0.515-0.7344 0.5215l-1.732 0.0332 1.336 1.148c0.2848 0.2021 0.4062 0.5661 0.2988 0.8984l-0.5098 1.654c0.00368-0.0019 7.386e-4 0.0033 0.005859 0l1.516-0.9883c0.2653-0.1728 0.6077-0.1728 0.873 0l0.6094 0.3984a4.5 4.5 0 0 1 0.3672-1.271c-0.01276-0.2679 0.1058-0.5309 0.332-0.6914l0.1699-0.1465a4.5 4.5 0 0 1 1.055-1.004l-1.619-0.03125c-0.3292-0.00587-0.6219-0.2128-0.7363-0.5215l-0.6035-1.672h-0.001953c0.00993 0.02699 0.01083 0.01786-0.007812 0.01562-0.01844 0.0018-0.02178 0.01157-0.01172-0.01562z" fill="currentColor"/>
  <path class="ColorScheme-NegativeText" d="m12.5 8c-1.933 0-3.5 1.567-3.5 3.5 0 1.933 1.567 3.5 3.5 3.5s3.5-1.567 3.5-3.5c0-1.933-1.567-3.5-3.5-3.5zm-0.5 1h1v3h-1v-3zm0.5 4a0.5 0.5 0 0 1 0.5 0.5 0.5 0.5 0 0 1-0.5 0.5 0.5 0.5 0 0 1-0.5-0.5 0.5 0.5 0 0 1 0.5-0.5z" fill="currentColor"/>
</svg>
